X: 181
T: Unnamed
F: https://archive.org/details/GamutFortheFifes
B: John Treat - "Gamut for the Fifes", 1779, p.18 #1
Z: 2017 John Chambers <jc:trillian.mit.edu>
N: The 1st bar is too long; fixed to match bar 2's rhythm.
N: There's some illegible text below the tune that might be a title.
M: none
L: 1/16
K: D
% - - - - - - - - - - - - - - - - - - - - - - - - -
|:\
B2Bc B2A2 | G[BE]EE G[BE]EE | B2Bc B2e2 | fedd e4 ::\
gebe gebe | fede fgaf | gebe gebe | fedc e4 :|
% - - - - - - - - - - - - - - - - - - - - - - - - -
